Hatter-kde/actions/22/kstars_satellites.svg

<svg xmlns="http://www.w3.org/2000/svg" viewBox="0 0 22 22">
  <defs id="defs3051">
    <style type="text/css" id="current-color-scheme">
      .ColorScheme-Text {
        color:#363636;
      }
      </style>
  </defs>
 <path 
     style="fill:currentColor;fill-opacity:1;stroke:none" 
     d="M 14 3 L 8.7363281 10.177734 A 4.5 4.5 0 0 1 9.1855469 10.333984 C 8.6642326 10.122856 8.0970333 10 7.5 10 C 6.3069911 10.0012 5.1632886 10.476121 4.3203125 11.320312 A 4.5 4.5 0 0 0 3.6933594 12.107422 L 5.7871094 14.201172 L 4.390625 16.105469 A 3.5 3.5 0 0 0 5.8964844 17.607422 L 7.7988281 16.212891 L 9.8945312 18.308594 A 4.5 4.5 0 0 0 10.679688 17.679688 C 11.523881 16.836711 11.998786 15.693009 12 14.5 C 12.000001 13.918791 11.88031 13.367411 11.679688 12.857422 A 4.5 4.5 0 0 1 11.824219 13.261719 L 19 8 L 14 3 z M 5.9140625 3.0859375 L 3.0859375 5.9160156 L 6.7578125 9.5859375 L 9.5859375 6.7578125 L 5.9140625 3.0859375 z M 14.117188 4.53125 L 17.46875 7.8828125 L 11.427734 12.314453 A 4.5 4.5 0 0 1 11.599609 12.662109 C 11.151345 11.664248 10.352692 10.863145 9.3574219 10.410156 A 4.5 4.5 0 0 1 9.6894531 10.570312 L 14.117188 4.53125 z M 7.5 11 C 9.4329966 11 11 12.567003 11 14.5 C 10.9988 15.427807 10.629304 16.317185 9.9726562 16.972656 L 5.0273438 12.027344 C 5.6828146 11.370696 6.5721925 11.001176 7.5 11 z M 15.242188 12.414062 L 12.414062 15.244141 L 16.085938 18.916016 L 18.914062 16.085938 L 15.242188 12.414062 z M 3.7480469 16.980469 L 3 18 L 4 19 L 5.0195312 18.251953 A 4.5 4.5 0 0 1 3.7480469 16.980469 z "
     class="ColorScheme-Text"
     />
</svg>

<?xml version="1.0" encoding="UTF-8"?>
<svg viewBox="0 0 22 22" xmlns="http://www.w3.org/2000/svg">
 <defs id="defs3051">
  <style id="current-color-scheme" type="text/css">.ColorScheme-Text {
        color:#363636;
      }</style>
 </defs>
 <path class="ColorScheme-Text" d="m14 3-5.2637 7.1777a4.5 4.5 0 0 1 0.44922 0.15625c-0.52131-0.21113-1.0885-0.33398-1.6855-0.33398-1.193 0.0012-2.3367 0.47612-3.1797 1.3203a4.5 4.5 0 0 0-0.62695 0.78711l2.0938 2.0938-1.3965 1.9043a3.5 3.5 0 0 0 1.5059 1.502l1.9023-1.3945 2.0957 2.0957a4.5 4.5 0 0 0 0.78516-0.62891c0.84419-0.84298 1.3191-1.9867 1.3203-3.1797 1e-6 -0.58121-0.11969-1.1326-0.32031-1.6426a4.5 4.5 0 0 1 0.14453 0.4043l7.1758-5.2617-5-5zm-8.0859 0.085938-2.8281 2.8301 3.6719 3.6699 2.8281-2.8281-3.6719-3.6719zm8.2031 1.4453 3.3516 3.3516-6.041 4.4316a4.5 4.5 0 0 1 0.17188 0.34766c-0.44826-0.99786-1.2469-1.799-2.2422-2.252a4.5 4.5 0 0 1 0.33203 0.16016l4.4277-6.0391zm-6.6172 6.4688c1.933 0 3.5 1.567 3.5 3.5-0.0012 0.92781-0.3707 1.8172-1.0273 2.4727l-4.9453-4.9453c0.65547-0.65665 1.5448-1.0262 2.4727-1.0273zm7.7422 1.4141-2.8281 2.8301 3.6719 3.6719 2.8281-2.8301-3.6719-3.6719zm-11.494 4.5664-0.74805 1.0195 1 1 1.0195-0.74805a4.5 4.5 0 0 1-1.2715-1.2715z" fill="currentColor"/>
</svg>
